static/img/graph-icon.svg

<svg xmlns="http://www.w3.org/2000/svg" viewBox="0 0 22 22">
  <defs id="defs3051">
    <style type="text/css" id="current-color-scheme">
      .ColorScheme-Text {
        color:#4d4d4d;
      }
      </style>
  </defs>
 <path 
     style="fill:currentColor;fill-opacity:1;stroke:none" 
     d="M 4 3 L 4 9 L 4 10 L 4 15 L 4 16 L 4 17 L 3 17 L 3 18 L 4 18 L 4 19 L 5 19 L 5 18 L 19 18 L 19 17 L 5 17 L 5 16 L 5.0078125 16 L 6 16 L 8 16 L 8 15.992188 L 8.0078125 16 L 10.007812 14 L 11.599609 14 L 13.599609 16 L 17.099609 16 L 19 16 L 19 15 L 17.099609 15 L 14.013672 15 L 12.013672 13 L 12 13 L 11.007812 13 L 10.599609 13 L 9.59375 13 L 7.59375 15 L 6 15 L 5.0078125 15 L 5 15 L 5 12 L 5 11 L 5 10 L 6 10 L 7 10 L 8.8730469 10 L 8.875 10 L 10.875 8 L 11.703125 7.171875 L 12.998047 5.8769531 L 15.121094 8 L 15.126953 7.9960938 L 15.130859 8 L 17.130859 6 L 17.958984 5.171875 L 19 4.1308594 L 18.292969 3.4238281 L 17.251953 4.4648438 L 16.423828 5.2929688 L 15.126953 6.5898438 L 13 4.4648438 L 12.998047 4.4667969 L 12.996094 4.4648438 L 11.46875 5.9921875 L 5 5.9921875 L 5 5 L 5 3 L 4 3 z M 5 6 L 11.460938 6 L 10.996094 6.4648438 L 10.167969 7.2929688 L 8.4609375 9 L 7 9 L 6 9 L 5 9 L 5 6 z "
     class="ColorScheme-Text"
     />
 <path 
     style="fill:currentColor;fill-opacity:0.5;stroke:none" 
     d="M 18.933594 4.0644531 L 19 4.1308594 L 19 4.1269531 L 18.933594 4.0644531 z M 19 4.1308594 L 17.958984 5.171875 L 17.130859 6 L 15.130859 8 L 15.126953 7.9960938 L 15.121094 8 L 12.998047 5.8769531 L 11.703125 7.171875 L 10.875 8 L 8.875 10 L 8.8730469 10 L 7 10 L 6 10 L 5 10 L 5 11 L 5 12 L 5 15 L 5.0078125 15 L 7.59375 15 L 9.59375 13 L 10 13 L 12 12.992188 L 12.007812 13 L 12.013672 13 L 14.005859 14.992188 L 19 15 L 19 4.1308594 z M 10 14 L 8 16 L 5 16 L 5 17 L 19 17 L 19 16 L 13.599609 16 L 11.599609 14 L 10 14 z "
     class="ColorScheme-Text"
     />
</svg>

<?xml version="1.0" encoding="UTF-8" standalone="no"?>
<svg
   xmlns:dc="http://purl.org/dc/elements/1.1/"
   xmlns:cc="http://creativecommons.org/ns#"
   xmlns:rdf="http://www.w3.org/1999/02/22-rdf-syntax-ns#"
   xmlns:svg="http://www.w3.org/2000/svg"
   xmlns="http://www.w3.org/2000/svg"
   xmlns:sodipodi="http://sodipodi.sourceforge.net/DTD/sodipodi-0.dtd"
   xmlns:inkscape="http://www.inkscape.org/namespaces/inkscape"
   viewBox="0 0 22 22"
   version="1.1"
   id="svg8"
   sodipodi:docname="graph-icon.svg"
   inkscape:version="0.92.4 5da689c313, 2019-01-14">
  <metadata
     id="metadata12">
    <rdf:RDF>
      <cc:Work
         rdf:about="">
        <dc:format>image/svg+xml</dc:format>
        <dc:type
           rdf:resource="http://purl.org/dc/dcmitype/StillImage" />
      </cc:Work>
    </rdf:RDF>
  </metadata>
  <sodipodi:namedview
     pagecolor="#ffffff"
     bordercolor="#666666"
     borderopacity="1"
     objecttolerance="10"
     gridtolerance="10"
     guidetolerance="10"
     inkscape:pageopacity="0"
     inkscape:pageshadow="2"
     inkscape:window-width="1920"
     inkscape:window-height="1027"
     id="namedview10"
     showgrid="false"
     inkscape:zoom="10.727273"
     inkscape:cx="11"
     inkscape:cy="11"
     inkscape:window-x="0"
     inkscape:window-y="0"
     inkscape:window-maximized="1"
     inkscape:current-layer="svg8" />
  <defs
     id="defs3051">
    <style
       type="text/css"
       id="current-color-scheme">
      .ColorScheme-Text {
        color:#4d4d4d;
      }
      </style>
  </defs>
  <path
     style="color:#4d4d4d;fill:#ffcc00;fill-opacity:1;stroke:none"
     d="m 4,3 v 6 1 5 1 1 H 3 v 1 h 1 v 1 H 5 V 18 H 19 V 17 H 5 V 16 H 5.0078125 6 8 v -0.0078 L 8.0078125,16 10.007812,14 h 1.591797 l 2,2 h 3.5 H 19 v -1 h -1.900391 -3.085937 l -2,-2 H 12 11.007812 10.599609 9.59375 l -2,2 H 6 5.0078125 5 V 12 11 10 H 6 7 8.8730469 8.875 l 2,-2 L 11.703125,7.171875 12.998047,5.876953 15.121094,8 l 0.0059,-0.0039 0.0039,0.0039 2,-2 L 17.959019,5.171875 19,4.130859 18.292969,3.423828 17.251953,4.464844 16.423828,5.292969 15.126953,6.589844 13,4.464844 l -0.002,0.002 -0.002,-0.002 -1.527344,1.527343 H 5 V 5 3 Z m 1,3 h 6.460938 L 10.996094,6.464844 10.167969,7.292969 8.4609375,9 H 7 6 5 Z"
     class="ColorScheme-Text"
     id="path4"
     inkscape:connector-curvature="0" />
  <path
     style="fill:#1a1a1a;fill-opacity:0.5;stroke:none"
     d="M 18.933594 4.0644531 L 19 4.1308594 L 19 4.1269531 L 18.933594 4.0644531 z M 19 4.1308594 L 17.958984 5.171875 L 17.130859 6 L 15.130859 8 L 15.126953 7.9960938 L 15.121094 8 L 12.998047 5.8769531 L 11.703125 7.171875 L 10.875 8 L 8.875 10 L 8.8730469 10 L 7 10 L 6 10 L 5 10 L 5 11 L 5 12 L 5 15 L 5.0078125 15 L 7.59375 15 L 9.59375 13 L 10 13 L 12 12.992188 L 12.007812 13 L 12.013672 13 L 14.005859 14.992188 L 19 15 L 19 4.1308594 z M 10 14 L 8 16 L 5 16 L 5 17 L 19 17 L 19 16 L 13.599609 16 L 11.599609 14 L 10 14 z "
     class="ColorScheme-Text"
     id="path6" />
</svg>
